Costumes/planet2.svg

<?xml version="1.0" encoding="utf-8"?>
<!-- Generator: Adobe Illustrator 14.0.0, SVG Export Plug-In . SVG Version: 6.00 Build 43363)  -->
<!DOCTYPE svg PUBLIC "-//W3C//DTD SVG 1.1//EN" "http://www.w3.org/Graphics/SVG/1.1/DTD/svg11.dtd">
<svg version="1.1" id="Layer_1" xmlns="http://www.w3.org/2000/svg" xmlns:xlink="http://www.w3.org/1999/xlink" x="0px" y="0px"
	 width="144px" height="144px" viewBox="0 0 144 144" enable-background="new 0 0 144 144" xml:space="preserve">
<g>
	<ellipse fill="#726658" cx="71.46" cy="72.069" rx="27.896" ry="24.749"/>
	<ellipse fill="none" stroke="#FFFFFF" stroke-width="0.5" cx="71.46" cy="72.069" rx="27.896" ry="24.749"/>
	<path fill="none" stroke="#C2B59B" stroke-width="0.5" d="M98.382,78.593c-8.294,2.043-18.515,2.229-29.204,0.084
		c-9.879-1.982-18.621-5.643-25.307-10.199"/>
	<path fill="none" stroke="#C2B59B" stroke-width="0.5" d="M96.493,82.835c-4.839,2.38-10.489,3.136-16.073,2.142"/>
	<path fill="none" stroke="#C2B59B" stroke-width="0.5" d="M52.58,83.15c-2.098-0.047-4.24-0.262-6.4-0.655"/>
	<path fill="none" stroke="#C2B59B" stroke-width="0.5" d="M76.729,84.412c-4.852,4.18-12.408,6.924-21.363,7.812"/>
	<path fill="none" stroke="#C2B59B" stroke-width="0.5" d="M75.436,79.681c-4.857,5.245-13.574,8.622-24.102,9.478"/>
	<path fill="none" stroke="#C2B59B" stroke-width="0.5" d="M84.229,80.198c-1.912,3.812-5.406,6.505-9.789,7.968"/>
	<path fill="none" stroke="#C2B59B" stroke-width="0.5" d="M78.578,80.138C75.844,87.344,71.57,93.111,66.6,96.469"/>
	<path fill="none" stroke="#C2B59B" stroke-width="0.5" d="M83.324,94.48c-2.742-1.16-5.434-2.717-7.975-4.674
		c-0.426-0.326-0.842-0.662-1.248-1.002"/>
	<path fill="none" stroke="#C2B59B" stroke-width="0.5" d="M89.414,91.113c-4.016-0.525-8.152-1.91-12.082-4.152"/>
	<path fill="none" stroke="#C2B59B" stroke-width="0.5" d="M57.074,88.383c-4.992-4.451-8.496-10.644-9.637-17.669"/>
	<path fill="none" stroke="#C2B59B" stroke-width="0.5" d="M99.237,75.265c-8.79,1.621-19.452-1.547-28.046-9.209
		c-5.418-4.832-9.156-10.686-11.025-16.588"/>
	<path fill="none" stroke="#C2B59B" stroke-width="0.5" d="M85.422,50.515c1.139,2.387,1.783,5.111,1.783,8.004
		c0,5.693-2.498,10.736-6.34,13.836"/>
	<path fill="none" stroke="#C2B59B" stroke-width="0.5" d="M56.004,74.878c-0.221-1.098-0.336-2.227-0.336-3.383
		c0-10.314,9.186-18.676,20.518-18.676c11.33,0,20.517,8.361,20.517,18.676c0,1.43-0.178,2.82-0.512,4.156"/>
	<g>
		<path opacity="0.8" fill="#F9ED32" d="M97.405,81.255c16.201-4.055,26.936-9.635,26.355-14.543
			c-0.826-7.023-24.502-10.014-52.882-6.674c-28.381,3.34-50.717,11.74-49.891,18.764c0.568,4.815,11.873,7.733,28.07,8.017
			c0,0-1.033-1.225-1.332-1.578s-0.861-1.412-0.861-1.412c-7.277-0.725-11.941-2.388-12.225-4.802
			c-0.559-4.74,15.979-10.58,36.938-13.045c20.958-2.467,38.399-0.623,38.958,4.117c0.301,2.553-4.361,5.426-12.004,7.92
			c0,0-0.361,1.219-0.496,1.6C97.899,79.997,97.405,81.255,97.405,81.255z"/>
	</g>
	<g>
		<path fill="none" stroke="#C2B59B" stroke-width="0.5" d="M98.532,78.019c7.643-2.494,12.305-5.367,12.004-7.92
			c-0.559-4.74-18-6.584-38.958-4.117c-20.959,2.465-37.496,8.305-36.938,13.045c0.283,2.414,4.947,4.077,12.225,4.802"/>
		<path fill="none" stroke="#C2B59B" stroke-width="0.5" d="M97.405,81.255c16.201-4.055,26.936-9.635,26.355-14.543
			c-0.826-7.023-24.502-10.014-52.882-6.674c-28.381,3.34-50.717,11.74-49.891,18.764c0.568,4.815,11.873,7.733,28.07,8.017"/>
	</g>
</g>
</svg>

<?xml version="1.0" encoding="UTF-8" standalone="no"?>
<!-- Generator: Adobe Illustrator 14.0.0, SVG Export Plug-In . SVG Version: 6.00 Build 43363)  -->

<svg
   version="1.1"
   id="Layer_1"
   x="0px"
   y="0px"
   width="103.3179"
   height="49.998001"
   viewBox="0 0 103.3179 49.998001"
   enable-background="new 0 0 144 144"
   xml:space="preserve"
   sodipodi:docname="planet2.svg"
   xmlns:inkscape="http://www.inkscape.org/namespaces/inkscape"
   xmlns:sodipodi="http://sodipodi.sourceforge.net/DTD/sodipodi-0.dtd"
   xmlns="http://www.w3.org/2000/svg"
   xmlns:svg="http://www.w3.org/2000/svg"><defs
   id="defs47" /><sodipodi:namedview
   id="namedview45"
   pagecolor="#ffffff"
   bordercolor="#000000"
   borderopacity="0.25"
   inkscape:showpageshadow="2"
   inkscape:pageopacity="0.0"
   inkscape:pagecheckerboard="0"
   inkscape:deskcolor="#d1d1d1" />
<g
   id="g42"
   transform="translate(-20.714543,-47.07)">
	<ellipse
   fill="#726658"
   cx="71.459999"
   cy="72.069"
   rx="27.896"
   ry="24.749001"
   id="ellipse2" />
	<ellipse
   fill="none"
   stroke="#ffffff"
   stroke-width="0.5"
   cx="71.459999"
   cy="72.069"
   rx="27.896"
   ry="24.749001"
   id="ellipse4" />
	<path
   fill="none"
   stroke="#c2b59b"
   stroke-width="0.5"
   d="M 98.382,78.593 C 90.088,80.636 79.867,80.822 69.178,78.677 59.299,76.695 50.557,73.034 43.871,68.478"
   id="path6" />
	<path
   fill="none"
   stroke="#c2b59b"
   stroke-width="0.5"
   d="m 96.493,82.835 c -4.839,2.38 -10.489,3.136 -16.073,2.142"
   id="path8" />
	<path
   fill="none"
   stroke="#c2b59b"
   stroke-width="0.5"
   d="m 52.58,83.15 c -2.098,-0.047 -4.24,-0.262 -6.4,-0.655"
   id="path10" />
	<path
   fill="none"
   stroke="#c2b59b"
   stroke-width="0.5"
   d="m 76.729,84.412 c -4.852,4.18 -12.408,6.924 -21.363,7.812"
   id="path12" />
	<path
   fill="none"
   stroke="#c2b59b"
   stroke-width="0.5"
   d="m 75.436,79.681 c -4.857,5.245 -13.574,8.622 -24.102,9.478"
   id="path14" />
	<path
   fill="none"
   stroke="#c2b59b"
   stroke-width="0.5"
   d="m 84.229,80.198 c -1.912,3.812 -5.406,6.505 -9.789,7.968"
   id="path16" />
	<path
   fill="none"
   stroke="#c2b59b"
   stroke-width="0.5"
   d="M 78.578,80.138 C 75.844,87.344 71.57,93.111 66.6,96.469"
   id="path18" />
	<path
   fill="none"
   stroke="#c2b59b"
   stroke-width="0.5"
   d="M 83.324,94.48 C 80.582,93.32 77.89,91.763 75.349,89.806 74.923,89.48 74.507,89.144 74.101,88.804"
   id="path20" />
	<path
   fill="none"
   stroke="#c2b59b"
   stroke-width="0.5"
   d="M 89.414,91.113 C 85.398,90.588 81.262,89.203 77.332,86.961"
   id="path22" />
	<path
   fill="none"
   stroke="#c2b59b"
   stroke-width="0.5"
   d="M 57.074,88.383 C 52.082,83.932 48.578,77.739 47.437,70.714"
   id="path24" />
	<path
   fill="none"
   stroke="#c2b59b"
   stroke-width="0.5"
   d="M 99.237,75.265 C 90.447,76.886 79.785,73.718 71.191,66.056 65.773,61.224 62.035,55.37 60.166,49.468"
   id="path26" />
	<path
   fill="none"
   stroke="#c2b59b"
   stroke-width="0.5"
   d="m 85.422,50.515 c 1.139,2.387 1.783,5.111 1.783,8.004 0,5.693 -2.498,10.736 -6.34,13.836"
   id="path28" />
	<path
   fill="none"
   stroke="#c2b59b"
   stroke-width="0.5"
   d="m 56.004,74.878 c -0.221,-1.098 -0.336,-2.227 -0.336,-3.383 0,-10.314 9.186,-18.676 20.518,-18.676 11.33,0 20.517,8.361 20.517,18.676 0,1.43 -0.178,2.82 -0.512,4.156"
   id="path30" />
	<g
   id="g34">
		<path
   opacity="0.8"
   fill="#f9ed32"
   d="M 97.405,81.255 C 113.606,77.2 124.341,71.62 123.76,66.712 122.934,59.689 99.258,56.698 70.878,60.038 c -28.381,3.34 -50.717,11.74 -49.891,18.764 0.568,4.815 11.873,7.733 28.07,8.017 0,0 -1.033,-1.225 -1.332,-1.578 -0.299,-0.353 -0.861,-1.412 -0.861,-1.412 -7.277,-0.725 -11.941,-2.388 -12.225,-4.802 -0.559,-4.74 15.979,-10.58 36.938,-13.045 20.958,-2.467 38.399,-0.623 38.958,4.117 0.301,2.553 -4.361,5.426 -12.004,7.92 0,0 -0.361,1.219 -0.496,1.6 -0.136,0.378 -0.63,1.636 -0.63,1.636 z"
   id="path32" />
	</g>
	<g
   id="g40">
		<path
   fill="none"
   stroke="#c2b59b"
   stroke-width="0.5"
   d="m 98.532,78.019 c 7.643,-2.494 12.305,-5.367 12.004,-7.92 -0.559,-4.74 -18,-6.584 -38.958,-4.117 -20.959,2.465 -37.496,8.305 -36.938,13.045 0.283,2.414 4.947,4.077 12.225,4.802"
   id="path36" />
		<path
   fill="none"
   stroke="#c2b59b"
   stroke-width="0.5"
   d="M 97.405,81.255 C 113.606,77.2 124.341,71.62 123.76,66.712 122.934,59.689 99.258,56.698 70.878,60.038 c -28.381,3.34 -50.717,11.74 -49.891,18.764 0.568,4.815 11.873,7.733 28.07,8.017"
   id="path38" />
	</g>
</g>
</svg>
